app/dist/common/images/gan-and-lee-pharmaceuticals.svg

<svg height="18" viewBox="0 0 18 18" width="18" xmlns="http://www.w3.org/2000/svg"><path d="m0 0h18v18h-18z" fill="#f0f3fa"/><path d="m9 14a5 5 0 1 0 0-10 5 5 0 0 0 0 10zm-4-4.7c0-1.74 1.63-2.25 2.56-2.3h5.44l-.48 1h-.72l-1.43 4h-1.37l1.43-4h-2.87c-.37 0-.96.38-.96 1.12 0 .6.34.81.54.88h.76l.3-.65h-.7l.25-.58h1.73l-.9 2.23h-2.41c-.26 0-1.17-.73-1.17-1.7z" fill="#005ba6"/></svg>

<!-- by TradingView --><svg width="18" height="18" viewBox="0 0 18 18" xmlns="http://www.w3.org/2000/svg"><path fill="#F0F3FA" d="M0 0h18v18H0z"/><path d="M9 14A5 5 0 1 0 9 4a5 5 0 0 0 0 10ZM5 9.3C5 7.56 6.63 7.05 7.56 7H13l-.48 1h-.72l-1.43 4H9l1.43-4H7.56c-.37 0-.96.38-.96 1.12 0 .6.34.81.54.88h.76l.3-.65h-.7l.25-.58h1.73L8.58 11H6.17C5.91 11 5 10.27 5 9.3Z" fill="#005BA6"/></svg>
